components/Icon/icons/menu2.svg

<svg width="50" height="50" viewBox="0 0 50 50" fill="none" xmlns="http://www.w3.org/2000/svg">
<path d="M16.8751 27.7916L22.7709 21.8957L8.1459 7.29158C6.58517 8.85681 5.70874 10.977 5.70874 13.1874C5.70874 15.3978 6.58517 17.518 8.1459 19.0832L16.8751 27.7916V27.7916ZM31.0001 24.0207C34.1876 25.4999 38.6667 24.4582 41.9792 21.1457C45.9584 17.1666 46.7292 11.4582 43.6667 8.39574C40.6251 5.35408 34.9167 6.10408 30.9167 10.0832C27.6042 13.3957 26.5626 17.8749 28.0417 21.0624L7.7084 41.3957L10.6459 44.3332L25.0001 30.0207L39.3334 44.3541L42.2709 41.4166L27.9376 27.0832L31.0001 24.0207V24.0207Z" fill="black"/>
</svg>

<svg xmlns="http://www.w3.org/2000/svg" viewBox="1 0 50 50" width="100%" height="100%" fill="currentColor"  xmlns:v="https://vecta.io/nano"><path d="M16.875 27.792l5.896-5.896L8.146 7.292a8.35 8.35 0 0 0 0 11.792l8.729 8.708zM31 24.021c3.188 1.479 7.667.438 10.979-2.875 3.979-3.979 4.75-9.688 1.688-12.75-3.042-3.042-8.75-2.292-12.75 1.687-3.312 3.313-4.354 7.792-2.875 10.979L7.708 41.396l2.937 2.938L25 30.021l14.333 14.333 2.938-2.937-14.333-14.333L31 24.021z" fill="currentColor"/></svg>
